!!!COM: Anon.
!!!OTL: Andava dona Juliana
!!!OTL: Romanceiro Folclorico do Brasil
!!!CNT: Brasil
!!!OCY: Brasil
!!!ODT: <1971///
!!!PSR: Irmaos Vitale
!!!PSP: Sao Paulo, Brasil
!!!PDT: 1955///
!!!PPE: Rossini Tavares de Lima
!!!PPG: pages 63-64
!! Vocalist: Bela Infanta
!! Place: Sao Paulo, Brasil
**kern
*clefG2
*k[b-e-a-]
*M3/4
*MM116
8g
8g
=
4.ee-
8dd
8cc
8bn
=
4dd
4cc
8cc
8een
=
4.gg
8een
8cc
8bn
=
2a-
8ff
8ff
=
4ff
8ff
8ee-
8dd
8aa-
=
2gg
8ee-
8cc
=
4ff
8dd
8bn
8g
8dd
=
2cc
==
*-
